Sources/FrostedUI/Resources/Icons.xcassets/thumbDown12.imageset/thumb-down-12.svg

<svg width="12" height="12" viewBox="0 0 12 12" fill="none" xmlns="http://www.w3.org/2000/svg" data-fui-icon="true">
  <path
    d="M6.00293 11.3643C6.97618 11.2556 7.69254 10.3526 7.53711 9.35547L7.38379 8.375H9.12988C10.5072 8.37474 11.5607 7.14779 11.3535 5.78613L10.9355 3.03613C10.7681 1.93704 9.82277 1.125 8.71094 1.125H1.875C1.18466 1.125 0.625 1.68463 0.625 2.375V6.125C0.625 6.81537 1.18466 7.375 1.875 7.375H2.98145L4.69336 10.6973C4.90817 11.1144 5.33868 11.375 5.80566 11.375L6.00293 11.3643ZM2.125 2.625H2.625V5.875H2.125V2.625ZM4.125 6.31836V2.625H8.71094C9.08142 2.625 9.3962 2.89554 9.45215 3.26172L9.87109 6.01172C9.94014 6.46548 9.58886 6.87474 9.12988 6.875H6.50781C6.28881 6.87507 6.08091 6.97133 5.93848 7.1377C5.79619 7.30401 5.73299 7.52396 5.7666 7.74023L6.05469 9.58691C6.07049 9.6893 6.01988 9.78579 5.93652 9.83691L4.125 6.31836Z"
    fill="currentColor"
  />
</svg>

<svg xmlns="http://www.w3.org/2000/svg" width="12" height="12" fill="none" data-fui-icon="true" viewBox="0 0 12 12"><path fill="currentColor" d="M6.003 11.364a1.75 1.75 0 0 0 1.534-2.009l-.153-.98H9.13a2.25 2.25 0 0 0 2.223-2.589l-.418-2.75a2.25 2.25 0 0 0-2.224-1.911H1.875c-.69 0-1.25.56-1.25 1.25v3.75c0 .69.56 1.25 1.25 1.25h1.106l1.712 3.322c.215.417.646.678 1.113.678zM2.125 2.625h.5v3.25h-.5zm2 3.693V2.625h4.586c.37 0 .685.27.741.637l.42 2.75a.75.75 0 0 1-.742.863H6.508a.75.75 0 0 0-.741.865l.288 1.847a.25.25 0 0 1-.118.25z"/></svg>
